X:1
T:Auf der Reise, Op.22
T:ihrer lieben Cousine Wilhelmine Koestlin freundlichst gewidmet
T:Auf der Reise
T:Josephine Lang
T:Ludwig Bechstein
T:Op.22
T:Creative Commons copyright waiver (CC0 1.0 Universal)
T:Creative Commons copyright waiver (CC0 1.0 Universal)
T:Creative Commons copyright waiver (CC0 1.0 Universal)
C:Josephine Lang
Z:Ludwig Bechstein
Z:Creative Commons copyright waiver (CC0 1.0 Universal)
L:1/8
Q:1/4=116
M:4/4
K:B
V:1 treble nm="Singstimme \nVoice"
V:1
"^Allegretto" z8 | z8 | z8 | z4 z2 F2 | B2 G2 F2 D2 | (C3 D) E2 ^E2 | F3 F A2 B2 | c4 z2 F2 | %8
w: |||So|viel am Him- mels-|krei- * se der|Stern- lein bringt die|Nacht, so|
 B2 G2 F3 D | (C3 D) E2 ^E2 | F2 F2 e3 A | (B2 c4) c2 | (d4 B) z D2 | (E6 A,) A, | B,6 z2 | z8 | %16
w: viel- mal auf der|Rei- * se hab'|ich an dich ge-|dacht, * hab'|ich _ an|dich _ ge-|dacht!||
 z8 | z8 | z8 | z4 z2 z (F | (F2 =D) E F3 =G) | F4 B2 z2 | B2 B3/2 B/ B3 G | B6 z G | %24
w: |||So|oft * auf mei- nen|We- gen|ich nach dem Him- mel|sah, war|
 G2 A2 B2 ^B2 | c4 d2 z2 | d2 c3/2 B/ (A2 B3/2) G/ | c2 z2 f4- | (fF) G3/2 A/ (B3 ^E) | F4 z2 z2 | %30
w: auch mit treu- em|Se- gen|dir mein Ge- dan- * ke|nah, dir|_ _ mein Ge- dan- ke|nah!|
 z4 z2 z F | G3 G (G3 c | c4 F4) | G2 ^^F G (e2 d) c | (B4 A4) | d2 A G ^^F2 G2 | A4 D4 | %37
w: So|oft auf mei- nen|We- gen|ich nach dem Him- * mel|sah, _|war auch mit treu- em|Se- gen|
 D2 ^^C D G3 E | C4 z2 z F | B z (G2 F2 D2 | (C3) D) E2 ^E2 | F2 z F A2 B2 | c4 z2 F2 | %43
w: dir mein Ge- dan- ke|nah! So|oft auf grü- nen|Au- * en ich|fand der Blu- men|Zier, so|
 B2 G2 F2 z F | (C3 D E2) ^E2 | F2 ^E3/2 F/ =e3 A | (B2 c6) | d4 B z D2 | (F4- FE (3ED C | %49
w: oft hob dich zu|schau- * * en,|Sehn- sucht mein Herz in|mir, _|Sehn- sucht mein|Herz _ _ _ _ in|
 B,4) z4 | z8 | z8 | z8 | z8 |] %54
w: mir!|||||

